X: 22846
T: Lark In The Morning, The
R: jig
M: 6/8
K: Dmajor
||A3 AFA|BGB BdB|AFA ABd|fed edB|
AFA AFA|BGB BAB|def afe|fdB BdB|
A3 d=cA|BBB BdB|AAA AFA|fed edB|
AFA Ad=c|BGB BAB|def afe|fdB BAB||
def a3|baa afe|daa afe|fdB BAB|
def a3|bab a2f|g3 fed|edB BAB|
def a3|bab afe|daa afe|fdB BAB|
def a3|bbb afd|g2e fed|edB BAB||
d2f fef|fef fef|fef fef|edB BAB|
d2f fdf|fdf fef|g2e fed|edB BAB|
d2f fdf|fef fef|d2f fdf|edB BAB|
d2f fdf|fdf fdf|g3 fed|edB BAB||
|:A2d fdd|ede fdd|A2d fdd|edB BAG|
A2d fdd|ede fdB|g2e fed|edB BdB:|

